X: 39167
T: Sweets Of May, The
R: jig
M: 6/8
K: Dmajor
|:a/g/|f2 d ecA|ded d2 a/g/|f2 d def|g3 g2 a/g/|
f2 d ecA|ded d2 a/g/|f2 d ecA|(d3 d2):|
|:A|efe e2 d|B3 c2 d|efe g2 a|b2 a g2 f|
efe e2 d|B3 c2 d|efe f2 d|(e3 e2):|
|:f/g/|a3 afa|A3 A3|g3 gfg|A3 A3|
d2 A d2 e|f2 d f2 g|a2 A ABc|(d3 d3):|

